X:574
T:Pretty Peggy
D:Alastair Fraser
Z:Nigel Gatherer
L:1/8
M:4/4
K:D
A | d2    fd AFDF | d2    fd    e/f/g fe | d2    fd AFDF | GEFD        CEE  :|
A | F/E/D AD BDAD | G/F/E F/E/D CEEG     | F/E/D AD BDAD | G/F/E F/E/D A,DDA |
    F/E/D dD cDBD | AD    F/E/D CEEG     | FAdf     ecdB | AFGE        FDD  |]
<end>
<start>
